X: 1
T: Butlers Of Glen Avenue, The
C: Anthony &quot;Sully&quot; Sullivan
M: 6/8
L: 1/8
R: jig
K: Gmaj
|: DEG EDB, | DEG B3 | DEG ABe | dBe dBA | 
DEG EDB, | DEG B3 | dBd gfe | dBA G3 :|
|: gab age | deg B3 | gab gab | dBd e2 d | 
gab age | deg B3 | dBd gfe | dBA G3 :|
